web/themes/custom/oh_my_pasta/images/icons/instagram.svg

<svg width="48" height="49" viewBox="0 0 48 49" fill="none" xmlns="http://www.w3.org/2000/svg">
<g clip-path="url(#clip0_1300_677)">
<rect y="0.333008" width="48" height="48" rx="8" fill="#004A36"/>
<path d="M32.1311 6.33301H15.8689C10.4272 6.33301 6 10.7602 6 16.2019V32.4642C6 37.9059 10.4272 42.333 15.8689 42.333H32.1311C37.5729 42.333 42 37.9058 42 32.4642V16.2019C42 10.7602 37.5729 6.33301 32.1311 6.33301ZM24 34.2071C18.5554 34.2071 14.1259 29.7777 14.1259 24.333C14.1259 18.8884 18.5554 14.459 24 14.459C29.4446 14.459 33.8741 18.8884 33.8741 24.333C33.8741 29.7776 29.4446 34.2071 24 34.2071ZM34.4647 16.8684C32.8105 16.8684 31.4647 15.5226 31.4647 13.8684C31.4647 12.2142 32.8105 10.8684 34.4647 10.8684C36.1188 10.8684 37.4646 12.2142 37.4646 13.8683C37.4646 15.5225 36.1188 16.8684 34.4647 16.8684Z" fill="white"/>
<path d="M34.4646 12.9944C33.9828 12.9944 33.5907 13.3865 33.5907 13.8683C33.5907 14.3502 33.9828 14.7423 34.4646 14.7423C34.9466 14.7423 35.3386 14.3503 35.3386 13.8683C35.3386 13.3864 34.9466 12.9944 34.4646 12.9944Z" fill="white"/>
<path d="M24.0015 16.5854C19.7291 16.5854 16.2533 20.0613 16.2533 24.3336C16.2533 28.6059 19.7291 32.0818 24.0015 32.0818C28.2739 32.0818 31.7497 28.606 31.7497 24.3337C31.7497 20.0613 28.2739 16.5854 24.0015 16.5854Z" fill="white"/>
</g>
<defs>
<clipPath id="clip0_1300_677">
<rect width="48" height="48" fill="white" transform="translate(0 0.333008)"/>
</clipPath>
</defs>
</svg>

<svg width="48" height="49" fill="none" xmlns="http://www.w3.org/2000/svg"><g clip-path="url(#clip0_1300_677)"><rect y=".333" width="48" height="48" rx="8" fill="#004A36"/><path d="M32.131 6.333H15.87C10.427 6.333 6 10.76 6 16.202v16.262c0 5.442 4.427 9.869 9.869 9.869H32.13c5.442 0 9.869-4.427 9.869-9.869V16.202c0-5.442-4.427-9.869-9.869-9.869zM24 34.207c-5.445 0-9.874-4.43-9.874-9.874 0-5.445 4.43-9.874 9.874-9.874 5.445 0 9.874 4.43 9.874 9.874 0 5.445-4.43 9.874-9.874 9.874zm10.465-17.339c-1.655 0-3-1.345-3-3 0-1.654 1.345-3 3-3 1.654 0 3 1.346 3 3 0 1.655-1.346 3-3 3z" fill="#fff"/><path d="M34.465 12.994a.875.875 0 000 1.748.875.875 0 000-1.748zm-10.463 3.591c-4.273 0-7.749 3.476-7.749 7.749 0 4.272 3.476 7.748 7.748 7.748 4.273 0 7.749-3.476 7.749-7.748 0-4.273-3.476-7.749-7.748-7.749z" fill="#fff"/></g><defs><clipPath id="clip0_1300_677"><path fill="#fff" transform="translate(0 .333)" d="M0 0h48v48H0z"/></clipPath></defs></svg>
